public/icons/telegram_icon.svg

<svg width="30" height="30" viewBox="0 0 30 30" fill="none" xmlns="http://www.w3.org/2000/svg">
<circle cx="15" cy="15" r="15" fill="white"/>
<path d="M22.278 7.3248L7.59726 13.0887C7.31796 13.1983 7.30782 13.5899 7.58103 13.7138L10.8265 15.1866C10.9144 15.2265 10.9812 15.3019 11.0101 15.394L12.4026 19.8253C12.4729 20.049 12.7434 20.1358 12.9307 19.9947L15.3544 18.1687C15.4702 18.0815 15.6285 18.0774 15.7486 18.1584L19.8135 20.9007C20.0163 21.0375 20.2928 20.9215 20.3373 20.681L22.7359 7.70249C22.7844 7.44054 22.526 7.22745 22.278 7.3248ZM13.3819 15.8151L12.9439 18.3048L11.8134 14.74L19.5641 9.92937L13.3819 15.8151Z" fill="#4E4B66"/>
</svg>

<svg width="30" height="30" fill="none" xmlns="http://www.w3.org/2000/svg"><circle cx="15" cy="15" r="15" fill="#fff"/><path d="m22.278 7.325-14.68 5.764a.34.34 0 0 0-.017.625l3.245 1.473a.34.34 0 0 1 .184.207l1.393 4.431c.07.224.34.31.528.17l2.423-1.826a.34.34 0 0 1 .395-.01l4.065 2.742a.34.34 0 0 0 .523-.22l2.399-12.979a.34.34 0 0 0-.458-.377Zm-8.896 8.49-.438 2.49-1.13-3.565 7.75-4.81-6.182 5.885Z" fill="#4E4B66"/></svg>
